!!!COM: Music21
!!!OTL: Pasacorredoiras da Barreira
!!!OMV: pezas_pasacorredoiras_pasacorredoiras-da-barreira_pasacorredoiras-da-barreira-partitura.musicxml
**kern
*I"Bagpipes
*I'Bag
*clefG^2
*k[]
*M2/4
=1
!LO:TX:a:t=Andante
*MM96
!LO:TX:a:t=[quarter]=96
4r
16ccLL
16dd
16ee
16ffJJ
=||
16eeLL
16ff
16ee
16ddJJ
4cc
=
16eeLL
16ff
16ee
16ddJJ
4cc
=
8ggL
8ffJ
16ffLL
16ee
16ff
16ggJJ
=
8ffL
8eeJ
16eeLL
16ff
16gg
16aaJJ
=
4bb
16bbLL
16aa
16bb
16cccJJ
=
8bbL
8ggJ
16ggLL
16ff
16gg
16aaJJ
!!linebreak:original
=
16ggLL
16ff
16ee
16ggJJ
16ffLL
16ee
16dd
16ffJJ
=
8eeL
8eeJ
4ee
=
16ccLL
16dd
16ee
16ffJJ
16eeLL
16ff
16ee
16ddJJ
=
4cc
16eeLL
16ff
16ee
16ddJJ
=
4cc
8ggL
8ffJ
=
16ffLL
16ee
16ff
16ggJJ
8ffL
8eeJ
=
16eeLL
16ff
16gg
16aaJJ
4bb
=
16bbLL
16aa
16bb
16cccJJ
8bbL
8ggJ
!!linebreak:original
=
16ggLL
16ff
16gg
16aaJJ
16ggLL
16ff
16ee
16ggJJ
=
16ffLL
16ee
16dd
16ffJJ
8eeL
8eeJ
=
4ee
8ggL
8eeJ
=
8ccL
16ggL
16aaJJ
16ggLL
16ff
16ee
16ffJJ
=
4dd
8ffL
8ddJ
=
8bL
16ffL
16ggJJ
16ffLL
16ee
16dd
16eeJJ
=
4cc
8ggL
8eeJ
=
8ccL
16ggL
16aaJJ
16ggLL
16ff
16ee
16ffJJ
!!linebreak:original
=
4dd
8aaL
8ggJ
=
8bbL
8aaJ
8ggL
8ffJ
=
8eeL
8eeJ
4ee
=
8ggL
8eeJ
8ccL
16ggL
16aaJJ
=
16ggLL
16ff
16ee
16ffJJ
4dd
=
8ffL
8ddJ
8bL
16ffL
16ggJJ
=
16ffLL
16ee
16dd
16eeJJ
4cc
=
8ggL
8eeJ
8ccL
16ggL
16aaJJ
=
16ggLL
16ff
16ee
16ffJJ
4dd
!!linebreak:original
=
8aaL
8ggJ
8bbL
8aaJ
=
8ggL
8ffJ
8eeL
8eeJ
=
4ee
16ccLL
16dd
16ee
16ffJJ
==
*-
